src/assets/images/close-icon.svg

<svg width="20" height="20" viewBox="0 0 20 20" fill="none" xmlns="http://www.w3.org/2000/svg">
<path fill-rule="evenodd" clip-rule="evenodd" d="M18.4372 0.666748L10.0012 9.1021L1.56404 0.666748L0.666626 1.56283L9.10255 9.99945L0.666626 18.4348L1.56404 19.3334L10.0012 10.8968L18.4372 19.3334L19.3333 18.4348L10.8974 9.99945L19.3333 1.56283L18.4372 0.666748Z" fill="#888B94"/>
</svg>

<svg width="20" height="20" viewBox="0 0 20 20" fill="none" xmlns="http://www.w3.org/2000/svg"><path fill-rule="evenodd" clip-rule="evenodd" d="M18.437.667l-8.436 8.435L1.564.667l-.897.896 8.436 8.436-8.436 8.436.897.898 8.437-8.436 8.436 8.436.896-.898-8.436-8.436 8.436-8.436-.896-.896z" fill="#888B94"/></svg>
